X:268
M:4/4
L:1/4
K:C
G G A B | c c (B A) | B c d A | (G/E/ F) E2 | G G A B | c c (B A) | B c d A | (G/E/ F) E z/ D/ | E E G F | (E D) C z/ C/ | G G A B | c c (B A) | B c d A | G/E/ F E2 | A2 G E | F G E2 | G2 G E | F G E2 | A2 G A | B2 B2 | B A (G F) | E2 D A | G F E2 | A G A B | (c A) G2 | c B d A | G F E2 | !sintro!D A G F | E2 E2 !eintro!|]
